images/logo.svg

<svg xmlns="http://www.w3.org/2000/svg" id="Layer_4" width="536.9" height="128"><style>.st0{fill:none}.st5{opacity:.2;enable-background:new}.st13,.st5{fill:#fff}</style><g id="XMLID_2_"><g id="XMLID_3_"><g id="XMLID_4_"><path id="XMLID_33_" d="M78.7 58L45.1 0H.3l37 64-37 64h44.8l33.5-58c2.2-3.7 2.2-8.3.1-12z" class="st0"/><path id="XMLID_32_" fill="#ffc107" d="M59.4 102.3L48.8 83.9 23.3 128h21.8l14.6-25.2z"/><path id="XMLID_31_" d="M78.7 58L45.1 0H.3l37 64-37 64h44.8l33.5-58c2.2-3.7 2.2-8.3.1-12z" class="st0"/><path id="XMLID_30_" fill="#0f9d58" d="M37.3 64l11.5 19.9L23.3 128H.3z"/><path id="XMLID_29_" d="M78.7 58L45.1 0H.3l37 64-37 64h44.8l33.5-58c2.2-3.7 2.2-8.3.1-12z" class="st0"/><path id="XMLID_28_" fill="#bf360c" d="M45.1 127H23.8l-.5 1h21.8l14.6-25.2-.3-.5z" opacity=".2"/><path id="XMLID_27_" d="M78.7 58L45.1 0H.3l37 64-37 64h44.8l33.5-58c2.2-3.7 2.2-8.3.1-12z" class="st0"/><path id="XMLID_26_" fill="#263238" d="M.8 127l-.5 1h23l.5-1z" opacity=".2"/><path id="XMLID_25_" d="M78.7 58L45.1 0H.3l37 64-37 64h44.8l33.5-58c2.2-3.7 2.2-8.3.1-12z" class="st0"/><path id="XMLID_24_" d="M.3 128h.5l36.8-63.5-.3-.5z" class="st5"/><path id="XMLID_23_" d="M78.7 58L45.1 0H.3l37 64-37 64h44.8l33.5-58c2.2-3.7 2.2-8.3.1-12z" class="st0"/><radialGradient id="XMLID_34_" cx="59.537" cy="27.626" r="44.264" gradientTransform="matrix(1 0 0 -1 0 130)" gradientUnits="userSpaceOnUse"><stop offset="0" stop-color="#bf360c" stop-opacity=".2"/><stop offset="1" stop-color="#bf360c" stop-opacity=".02"/></radialGradient><path id="XMLID_22_" fill="url(#XMLID_34_)" d="M59.7 102.8L48.8 83.9l-2.7 4.6z"/><path id="XMLID_21_" d="M78.7 58L45.1 0H.3l37 64-37 64h44.8l33.5-58c2.2-3.7 2.2-8.3.1-12z" class="st0"/><radialGradient id="XMLID_35_" cx="59.411" cy="27.346" r="44.623" gradientTransform="matrix(1 0 0 -1 0 130)" gradientUnits="userSpaceOnUse"><stop offset="0" stop-color="#263238" stop-opacity=".2"/><stop offset="1" stop-color="#263238" stop-opacity=".02"/></radialGradient><path id="XMLID_20_" fill="url(#XMLID_35_)" d="M46.1 88.5l2.7-4.6L37.3 64l-5.5 9.5z"/><path id="XMLID_19_" d="M78.7 58L45.1 0H.3l37 64-37 64h44.8l33.5-58c2.2-3.7 2.2-8.3.1-12z" class="st0"/><g id="XMLID_16_"><g id="XMLID_17_"><path id="XMLID_18_" fill="#4285f4" d="M23.3 0H.3l59.4 102.8 11.5-19.9z"/></g></g><path id="XMLID_15_" d="M78.7 58L45.1 0H.3l37 64-37 64h44.8l33.5-58c2.2-3.7 2.2-8.3.1-12z" class="st0"/><path id="XMLID_14_" fill="#db4437" d="M78.7 70c2.1-3.7 2.1-8.3 0-12L45.1 0H23.3l47.9 82.9L78.7 70z"/><path id="XMLID_13_" d="M78.7 58L45.1 0H.3l37 64-37 64h44.8l33.5-58c2.2-3.7 2.2-8.3.1-12z" class="st0"/><path id="XMLID_12_" fill="#1a237e" d="M71.2 82.9l-.3-.5-11.2 19.4L.8 0H.3l59.4 102.8 11.5-19.9z" opacity=".2"/><path id="XMLID_11_" d="M78.7 58L45.1 0H.3l37 64-37 64h44.8l33.5-58c2.2-3.7 2.2-8.3.1-12z" class="st0"/><path id="XMLID_10_" d="M45.1 1l33.5 58c1 1.7 1.5 3.6 1.6 5.5.1-2.2-.4-4.5-1.6-6.5L45.1 0H.3l.6 1h44.2z" class="st5"/><path id="XMLID_9_" d="M78.7 58L45.1 0H.3l37 64-37 64h44.8l33.5-58c2.2-3.7 2.2-8.3.1-12z" class="st0"/><path id="XMLID_8_" fill="#3e2723" d="M71.2 82.9L78.7 70c1.2-2 1.7-4.3 1.6-6.5-.1 1.9-.6 3.8-1.6 5.5L71 82.4l.2.5z" opacity=".2"/><path id="XMLID_6_" d="M78.7 58L45.1 0H.3l37 64-37 64h44.8l33.5-58c2.2-3.7 2.2-8.3.1-12z" class="st0"/><radialGradient id="XMLID_36_" cx="-.74" cy="129" r="134.35" gradientTransform="matrix(1 0 0 -1 0 130)" gradientUnits="userSpaceOnUse"><stop offset="0" stop-color="#fff" stop-opacity=".1"/><stop offset="1" stop-color="#fff" stop-opacity="0"/></radialGradient><path id="XMLID_5_" fill="url(#XMLID_36_)" d="M78.7 58L45.1 0H.3l37 64-37 64h44.8l33.5-58c2.2-3.7 2.2-8.3.1-12z"/></g></g></g><g id="XMLID_1_"><path d="M176.6 33.2c0 7-2.1 12.6-6.2 16.7-4.7 4.9-10.9 7.4-18.4 7.4-7.2 0-13.4-2.5-18.4-7.5-5.1-5-7.6-11.2-7.6-18.7s2.5-13.6 7.6-18.7c5.1-5 11.2-7.5 18.4-7.5 3.6 0 7 .7 10.3 2.1 3.3 1.4 5.9 3.3 7.8 5.6l-4.4 4.4c-3.3-4-7.9-6-13.7-6-5.3 0-9.8 1.9-13.7 5.6-3.8 3.7-5.8 8.5-5.8 14.5 0 5.9 1.9 10.7 5.8 14.5 3.9 3.7 8.4 5.6 13.7 5.6 5.6 0 10.3-1.9 14-5.6 2.4-2.4 3.8-5.8 4.2-10.1H152v-6h24.3c.1 1.2.3 2.5.3 3.7zM182.9 56.2V6.1h15.3c7.7 0 13.9 2.3 18.5 7 4.6 4.6 6.9 10.7 6.9 18.1s-2.3 13.5-6.9 18.1c-4.6 4.6-10.8 7-18.5 7h-15.3zm6.5-6.2h8.9c5.8 0 10.4-1.7 13.8-5 3.4-3.3 5.1-8 5.1-13.9s-1.7-10.6-5.1-13.9c-3.4-3.3-8-5-13.8-5h-8.9V50zM278.4 33.2c0 7-2.1 12.6-6.2 16.7-4.7 4.9-10.9 7.4-18.4 7.4-7.2 0-13.4-2.5-18.4-7.5-5.1-5-7.6-11.2-7.6-18.7s2.5-13.6 7.6-18.7c5.1-5 11.2-7.5 18.4-7.5 3.6 0 7 .7 10.3 2.1 3.3 1.4 5.9 3.3 7.8 5.6l-4.4 4.4c-3.3-4-7.9-6-13.7-6-5.3 0-9.8 1.9-13.7 5.6-3.8 3.7-5.8 8.5-5.8 14.5 0 5.9 1.9 10.7 5.8 14.5 3.9 3.7 8.4 5.6 13.7 5.6 5.6 0 10.3-1.9 14-5.6 2.4-2.4 3.8-5.8 4.2-10.1h-18.2v-6H278c.2 1.2.4 2.5.4 3.7zM301.6 56.2V6.1h15.3c7.7 0 13.9 2.3 18.5 7 4.6 4.6 6.9 10.7 6.9 18.1s-2.3 13.5-6.9 18.1c-4.6 4.6-10.8 7-18.5 7h-15.3zM308 50h8.9c5.8 0 10.4-1.7 13.8-5 3.4-3.3 5.1-8 5.1-13.9s-1.7-10.6-5.1-13.9c-3.4-3.3-8-5-13.8-5H308V50zM363.4 57.3c-5.2 0-9.4-1.7-12.6-5.2-3.2-3.5-4.9-7.8-4.9-13.1 0-5 1.6-9.3 4.7-12.9 3.1-3.6 7.2-5.4 12.1-5.4 5.1 0 9.2 1.7 12.2 5 3.1 3.3 4.6 7.7 4.6 13.3l-.1 1.2h-27.1c.2 3.5 1.3 6.2 3.5 8.2 2.1 2 4.6 3 7.5 3 4.6 0 7.7-2 9.4-5.9l5.7 2.4c-1.1 2.7-3 4.9-5.5 6.7-2.6 1.8-5.8 2.7-9.5 2.7zm9.2-22.4c-.1-2-1-3.8-2.7-5.6-1.7-1.8-4.1-2.7-7.4-2.7-2.4 0-4.4.7-6.2 2.2-1.8 1.5-3 3.5-3.6 6h19.9zM393 56.2l-13.9-34.3h7l10.1 26.6h.1l10.2-26.6h6.9l-14 34.3H393zM423.7 56.2h-6.4V6.1h29.3v6.2h-22.8v16.5h20.6v6h-20.6v21.4zM466 57.3c-5.2 0-9.4-1.7-12.6-5.2-3.2-3.5-4.9-7.8-4.9-13.1 0-5 1.6-9.3 4.7-12.9 3.2-3.6 7.2-5.4 12.1-5.4 5.1 0 9.2 1.7 12.2 5 3.1 3.3 4.6 7.7 4.6 13.3l-.1 1.2h-27.1c.2 3.5 1.3 6.2 3.5 8.2 2.1 2 4.6 3 7.5 3 4.6 0 7.7-2 9.4-5.9l5.7 2.4c-1.1 2.7-3 4.9-5.5 6.7-2.7 1.8-5.8 2.7-9.5 2.7zm9.2-22.4c-.1-2-1-3.8-2.7-5.6-1.7-1.8-4.1-2.7-7.4-2.7-2.4 0-4.4.7-6.2 2.2-1.8 1.5-3 3.5-3.6 6h19.9zM499.1 57.3c-3.8 0-7-.9-9.5-2.8s-4.3-4.2-5.5-7l5.7-2.4c1.8 4.3 4.9 6.4 9.3 6.4 2 0 3.7-.4 4.9-1.3 1.3-.9 1.9-2.1 1.9-3.5 0-2.2-1.6-3.8-4.7-4.5l-6.9-1.7c-2.2-.6-4.3-1.6-6.2-3.2-2-1.6-2.9-3.7-2.9-6.3 0-3 1.3-5.5 4-7.4 2.7-1.9 5.9-2.8 9.6-2.8 3 0 5.7.7 8.1 2.1 2.4 1.4 4.1 3.3 5.1 5.9l-5.6 2.3c-1.3-3-3.9-4.6-7.8-4.6-1.9 0-3.5.4-4.8 1.2-1.3.8-2 1.9-2 3.2 0 2 1.5 3.3 4.5 4l6.8 1.6c3.2.7 5.6 2 7.1 3.9 1.5 1.8 2.3 3.9 2.3 6.2 0 3.1-1.3 5.6-3.8 7.7-2.3 2-5.6 3-9.6 3zM532 56.8c-3.6 0-6.3-1-8.2-2.9-1.9-1.9-2.8-4.6-2.8-8.1v-18h-6v-5.9h6V11.4h6.4v10.5h8.4v5.9h-8.4v17.5c0 3.7 1.5 5.6 4.6 5.6 1.2 0 2.1-.2 2.9-.6l2.2 5.5c-1.3.7-3 1-5.1 1zM142.5 123.3c-3.6 0-7.2-1.2-10.7-3.6-3.5-2.4-5.8-5.7-6.8-10l5.9-2.4c.7 2.8 2.1 5.1 4.3 7 2.2 1.9 4.6 2.8 7.3 2.8 2.8 0 5.2-.7 7.2-2.2 2-1.5 3-3.5 3-6 0-2.8-1-5-3-6.5s-5.1-2.9-9.4-4.2c-4.4-1.4-7.8-3.2-10.1-5.4s-3.4-5.1-3.4-8.5c0-3.6 1.4-6.7 4.3-9.4 2.8-2.7 6.6-4 11.1-4 4.2 0 7.7 1.1 10.4 3.2s4.4 4.4 5.2 7l-5.9 2.4c-.4-1.6-1.5-3.1-3.1-4.4-1.7-1.4-3.8-2-6.4-2-2.5 0-4.6.7-6.3 2.1-1.8 1.4-2.6 3.1-2.6 5.1 0 1.9.8 3.4 2.4 4.7 1.6 1.3 4 2.4 7.1 3.5 2.5.8 4.5 1.6 6.2 2.3 1.7.7 3.3 1.7 5 3 1.7 1.2 3 2.8 3.9 4.6.9 1.8 1.3 4 1.3 6.4 0 2.4-.5 4.6-1.5 6.5-1 1.9-2.3 3.4-4 4.5-1.7 1.1-3.4 2-5.4 2.6-2.1.6-4 .9-6 .9zM180.3 123.3c-5.2 0-9.4-1.7-12.6-5.2-3.2-3.5-4.9-7.8-4.9-13.1 0-5 1.6-9.3 4.7-12.9 3.1-3.6 7.2-5.4 12.1-5.4 5.1 0 9.2 1.7 12.2 5 3.1 3.3 4.6 7.7 4.6 13.3l-.1 1.2h-27.1c.2 3.5 1.3 6.2 3.5 8.2 2.1 2 4.6 3 7.5 3 4.6 0 7.7-2 9.4-5.9l5.7 2.4c-1.1 2.7-3 4.9-5.5 6.7-2.6 1.8-5.7 2.7-9.5 2.7zm9.3-22.4c-.1-2-1-3.8-2.7-5.6-1.7-1.8-4.1-2.7-7.4-2.7-2.4 0-4.4.7-6.2 2.2-1.8 1.5-3 3.5-3.6 6h19.9zM211.7 123.3c-3.6 0-6.7-1.1-9.1-3.1-2.4-2.1-3.7-4.9-3.7-8.3 0-3.7 1.4-6.7 4.3-8.8 2.9-2.1 6.5-3.2 10.7-3.2 3.8 0 6.9.7 9.3 2.1v-1c0-2.5-.9-4.5-2.6-6.1-1.7-1.5-3.9-2.3-6.4-2.3-1.9 0-3.6.4-5.1 1.3-1.5.9-2.6 2.1-3.1 3.6l-5.9-2.5c.8-2.1 2.4-4 4.7-5.7 2.3-1.8 5.4-2.6 9.2-2.6 4.4 0 8 1.3 10.9 3.9 2.9 2.6 4.3 6.2 4.3 10.8v20.7H223v-4.8h-.3c-2.3 4.1-6.1 6-11 6zm1-5.9c2.7 0 5.1-1 7.2-3 2.2-2 3.3-4.3 3.3-7-1.8-1.5-4.5-2.2-8.2-2.2-3.1 0-5.5.7-7.1 2-1.6 1.4-2.4 2.9-2.4 4.8 0 1.7.7 3 2.2 4 1.5.9 3.1 1.4 5 1.4zM247.9 123.3c-3.8 0-7-.9-9.5-2.8s-4.3-4.2-5.5-7l5.7-2.4c1.8 4.3 4.9 6.4 9.3 6.4 2 0 3.7-.4 4.9-1.3 1.3-.9 1.9-2.1 1.9-3.5 0-2.2-1.6-3.8-4.7-4.5l-6.9-1.7c-2.2-.6-4.3-1.6-6.2-3.2-2-1.6-2.9-3.7-2.9-6.3 0-3 1.3-5.5 4-7.4 2.7-1.9 5.9-2.8 9.6-2.8 3 0 5.7.7 8.1 2.1 2.4 1.4 4.1 3.3 5.1 5.9l-5.6 2.3c-1.3-3-3.9-4.6-7.8-4.6-1.9 0-3.5.4-4.8 1.2-1.3.8-2 1.9-2 3.2 0 2 1.5 3.3 4.6 4l6.8 1.6c3.2.7 5.6 2 7.1 3.9 1.5 1.8 2.3 3.9 2.3 6.2 0 3.1-1.3 5.6-3.8 7.7-2.5 2-5.7 3-9.7 3zM268.8 92c3.3-3.5 7.5-5.2 12.7-5.2 5.1 0 9.4 1.7 12.7 5.2 3.3 3.5 5 7.8 5 13.1 0 5.2-1.7 9.6-5 13.1s-7.5 5.2-12.7 5.2c-5.1 0-9.4-1.7-12.7-5.2-3.3-3.5-5-7.8-5-13.1.1-5.3 1.7-9.6 5-13.1zm4.8 22c2.2 2.3 4.8 3.4 7.9 3.4 3 0 5.7-1.1 7.9-3.4s3.3-5.3 3.3-9-1.1-6.7-3.3-9c-2.2-2.3-4.8-3.4-7.9-3.4-3 0-5.7 1.1-7.9 3.4s-3.3 5.3-3.3 9c0 3.8 1.1 6.8 3.3 9zM309.9 87.9v4.8h.3c.9-1.6 2.4-3 4.4-4.2 2-1.1 4.2-1.7 6.4-1.7 4.2 0 7.5 1.3 9.7 3.9 2.2 2.6 3.4 6.1 3.4 10.5v21h-6.4v-20c0-6.3-2.8-9.5-8.5-9.5-2.7 0-4.8 1.1-6.5 3.2-1.7 2.1-2.5 4.6-2.5 7.4v19h-6.4V87.9h6.1zM386.5 122.2H356v-6.4c9.1-9.2 15-15.2 17.6-18 2.3-2.6 3.8-4.5 4.6-5.8.8-1.3 1.2-3 1.2-4.9 0-2-.8-3.8-2.4-5.3-1.6-1.5-3.7-2.3-6.4-2.3-2.4 0-4.4.7-5.9 2.1-1.5 1.4-2.4 3-2.9 4.6l-5.9-2.4c.8-2.5 2.5-4.9 5-7.1 2.5-2.2 5.8-3.4 9.8-3.4 4.4 0 8.1 1.4 10.9 4.1 2.8 2.7 4.3 5.9 4.3 9.7 0 4.7-2.5 9.7-7.6 15l-14 14.1h22.2v6zM423.4 116.1c-3.5 4.8-8.2 7.2-13.9 7.2-5.7 0-10.4-2.4-13.9-7.2-3.5-4.8-5.3-10.8-5.3-17.9 0-7.1 1.8-13.1 5.3-17.9 3.5-4.8 8.2-7.2 13.9-7.2 5.7 0 10.4 2.4 13.9 7.2 3.5 4.8 5.3 10.7 5.3 17.9 0 7.2-1.8 13.1-5.3 17.9zm-14 1.1c3.8 0 6.9-1.8 9.2-5.4 2.3-3.6 3.5-8.1 3.5-13.5 0-5.5-1.2-10-3.5-13.5-2.3-3.6-5.4-5.4-9.2-5.4-3.9 0-7 1.8-9.2 5.4-2.3 3.6-3.4 8.1-3.4 13.5s1.1 9.9 3.4 13.5c2.3 3.6 5.4 5.4 9.2 5.4zM449.1 122.2h-6.4V82.3l-9.3 4.1-2.5-5.5 14.1-6.6h4.1v47.9zM484.4 119.2c-3.1 2.8-7 4.1-11.5 4.1-4.6 0-8.4-1.4-11.5-4.1-3.1-2.8-4.7-6.2-4.7-10.2 0-2.7.7-5 2.2-7 1.4-2 3.3-3.6 5.7-4.8v-.3c-1.8-1.2-3.3-2.6-4.5-4.4-1.2-1.8-1.8-3.7-1.8-5.6 0-3.9 1.4-7.1 4.1-9.7 2.8-2.6 6.3-3.9 10.5-3.9s7.7 1.3 10.5 3.9c2.8 2.6 4.1 5.8 4.1 9.7 0 2-.6 3.8-1.8 5.6-1.2 1.8-2.7 3.3-4.5 4.4v.3c2.3 1.2 4.2 2.8 5.7 4.8 1.4 2 2.2 4.4 2.2 7 0 4-1.6 7.4-4.7 10.2zm-18.4-4.4c1.9 1.6 4.2 2.4 6.9 2.4s5-.8 6.9-2.4c1.9-1.6 2.8-3.6 2.8-6.2 0-2.5-.9-4.5-2.8-6.1-1.9-1.6-4.2-2.4-6.9-2.4s-5 .8-6.9 2.4c-1.9 1.6-2.8 3.6-2.8 6.1 0 2.5.9 4.6 2.8 6.2zm1.1-22.7c1.5 1.4 3.4 2.1 5.8 2.1 2.3 0 4.3-.7 5.8-2.1 1.5-1.4 2.3-3.2 2.3-5.4s-.8-4-2.3-5.3c-1.5-1.3-3.4-2-5.8-2-2.3 0-4.3.7-5.8 2s-2.3 3.1-2.3 5.3c0 2.2.8 4 2.3 5.4z" class="st13"/></g></svg>

<?xml version="1.0" encoding="UTF-8" standalone="no"?>
<svg
   xmlns:dc="http://purl.org/dc/elements/1.1/"
   xmlns:cc="http://creativecommons.org/ns#"
   xmlns:rdf="http://www.w3.org/1999/02/22-rdf-syntax-ns#"
   xmlns:svg="http://www.w3.org/2000/svg"
   xmlns="http://www.w3.org/2000/svg"
   xmlns:sodipodi="http://sodipodi.sourceforge.net/DTD/sodipodi-0.dtd"
   xmlns:inkscape="http://www.inkscape.org/namespaces/inkscape"
   id="Layer_4"
   width="536.9"
   height="128"
   version="1.1"
   sodipodi:docname="logoxxd.svg"
   inkscape:version="0.92.2 5c3e80d, 2017-08-06">
  <metadata
     id="metadata167">
    <rdf:RDF>
      <cc:Work
         rdf:about="">
        <dc:format>image/svg+xml</dc:format>
        <dc:type
           rdf:resource="http://purl.org/dc/dcmitype/StillImage" />
      </cc:Work>
    </rdf:RDF>
  </metadata>
  <defs
     id="defs165" />
  <sodipodi:namedview
     pagecolor="#ffffff"
     bordercolor="#666666"
     borderopacity="1"
     objecttolerance="10"
     gridtolerance="10"
     guidetolerance="10"
     inkscape:pageopacity="0"
     inkscape:pageshadow="2"
     inkscape:window-width="1680"
     inkscape:window-height="963"
     id="namedview163"
     showgrid="false"
     inkscape:zoom="2.4138572"
     inkscape:cx="268.29947"
     inkscape:cy="83.438094"
     inkscape:window-x="0"
     inkscape:window-y="0"
     inkscape:window-maximized="1"
     inkscape:current-layer="Layer_4" />
  <style
     id="style111">.st0{fill:none}.st5{opacity:.2;enable-background:new}.st13,.st5{fill:#fff}</style>
  <g
     id="XMLID_2_"
     transform="matrix(0.89644743,0,0,0.89644743,0.03106577,0)">
    <g
       id="XMLID_3_">
      <g
         id="XMLID_4_">
        <path
           id="XMLID_33_"
           d="M 78.7,58 45.1,0 H 0.3 l 37,64 -37,64 H 45.1 L 78.6,70 c 2.2,-3.7 2.2,-8.3 0.1,-12 z"
           class="st0"
           inkscape:connector-curvature="0"
           style="fill:none" />
        <path
           id="XMLID_32_"
           d="M 59.4,102.3 48.8,83.9 23.3,128 h 21.8 l 14.6,-25.2 z"
           inkscape:connector-curvature="0"
           style="fill:#ffc107" />
        <path
           id="XMLID_31_"
           d="M 78.7,58 45.1,0 H 0.3 l 37,64 -37,64 H 45.1 L 78.6,70 c 2.2,-3.7 2.2,-8.3 0.1,-12 z"
           class="st0"
           inkscape:connector-curvature="0"
           style="fill:none" />
        <path
           id="XMLID_30_"
           d="M 37.3,64 48.8,83.9 23.3,128 h -23 z"
           inkscape:connector-curvature="0"
           style="fill:#0f9d58" />
        <path
           id="XMLID_29_"
           d="M 78.7,58 45.1,0 H 0.3 l 37,64 -37,64 H 45.1 L 78.6,70 c 2.2,-3.7 2.2,-8.3 0.1,-12 z"
           class="st0"
           inkscape:connector-curvature="0"
           style="fill:none" />
        <path
           id="XMLID_28_"
           d="M 45.1,127 H 23.8 l -0.5,1 h 21.8 l 14.6,-25.2 -0.3,-0.5 z"
           inkscape:connector-curvature="0"
           style="opacity:0.2;fill:#bf360c" />
        <path
           id="XMLID_27_"
           d="M 78.7,58 45.1,0 H 0.3 l 37,64 -37,64 H 45.1 L 78.6,70 c 2.2,-3.7 2.2,-8.3 0.1,-12 z"
           class="st0"
           inkscape:connector-curvature="0"
           style="fill:none" />
        <path
           id="XMLID_26_"
           d="m 0.8,127 -0.5,1 h 23 l 0.5,-1 z"
           inkscape:connector-curvature="0"
           style="opacity:0.2;fill:#263238" />
        <path
           id="XMLID_25_"
           d="M 78.7,58 45.1,0 H 0.3 l 37,64 -37,64 H 45.1 L 78.6,70 c 2.2,-3.7 2.2,-8.3 0.1,-12 z"
           class="st0"
           inkscape:connector-curvature="0"
           style="fill:none" />
        <path
           id="XMLID_24_"
           d="M 0.3,128 H 0.8 L 37.6,64.5 37.3,64 Z"
           class="st5"
           inkscape:connector-curvature="0"
           style="opacity:0.2;fill:#ffffff;enable-background:new" />
        <path
           id="XMLID_23_"
           d="M 78.7,58 45.1,0 H 0.3 l 37,64 -37,64 H 45.1 L 78.6,70 c 2.2,-3.7 2.2,-8.3 0.1,-12 z"
           class="st0"
           inkscape:connector-curvature="0"
           style="fill:none" />
        <radialGradient
           id="XMLID_34_"
           cx="59.536999"
           cy="27.625999"
           r="44.264"
           gradientTransform="matrix(1,0,0,-1,0,130)"
           gradientUnits="userSpaceOnUse">
          <stop
             offset="0"
             stop-color="#bf360c"
             stop-opacity=".2"
             id="stop124" />
          <stop
             offset="1"
             stop-color="#bf360c"
             stop-opacity=".02"
             id="stop126" />
        </radialGradient>
        <path
           id="XMLID_22_"
           d="M 59.7,102.8 48.8,83.9 46.1,88.5 Z"
           style="fill:url(#XMLID_34_)"
           inkscape:connector-curvature="0" />
        <path
           id="XMLID_21_"
           d="M 78.7,58 45.1,0 H 0.3 l 37,64 -37,64 H 45.1 L 78.6,70 c 2.2,-3.7 2.2,-8.3 0.1,-12 z"
           class="st0"
           inkscape:connector-curvature="0"
           style="fill:none" />
        <radialGradient
           id="XMLID_35_"
           cx="59.410999"
           cy="27.346001"
           r="44.623001"
           gradientTransform="matrix(1,0,0,-1,0,130)"
           gradientUnits="userSpaceOnUse">
          <stop
             offset="0"
             stop-color="#263238"
             stop-opacity=".2"
             id="stop131" />
          <stop
             offset="1"
             stop-color="#263238"
             stop-opacity=".02"
             id="stop133" />
        </radialGradient>
        <path
           id="XMLID_20_"
           d="M 46.1,88.5 48.8,83.9 37.3,64 31.8,73.5 Z"
           style="fill:url(#XMLID_35_)"
           inkscape:connector-curvature="0" />
        <path
           id="XMLID_19_"
           d="M 78.7,58 45.1,0 H 0.3 l 37,64 -37,64 H 45.1 L 78.6,70 c 2.2,-3.7 2.2,-8.3 0.1,-12 z"
           class="st0"
           inkscape:connector-curvature="0"
           style="fill:none" />
        <g
           id="XMLID_16_">
          <g
             id="XMLID_17_">
            <path
               id="XMLID_18_"
               d="M 23.3,0 H 0.3 L 59.7,102.8 71.2,82.9 Z"
               inkscape:connector-curvature="0"
               style="fill:#4285f4" />
          </g>
        </g>
        <path
           id="XMLID_15_"
           d="M 78.7,58 45.1,0 H 0.3 l 37,64 -37,64 H 45.1 L 78.6,70 c 2.2,-3.7 2.2,-8.3 0.1,-12 z"
           class="st0"
           inkscape:connector-curvature="0"
           style="fill:none" />
        <path
           id="XMLID_14_"
           d="m 78.7,70 c 2.1,-3.7 2.1,-8.3 0,-12 L 45.1,0 H 23.3 l 47.9,82.9 z"
           inkscape:connector-curvature="0"
           style="fill:#db4437" />
        <path
           id="XMLID_13_"
           d="M 78.7,58 45.1,0 H 0.3 l 37,64 -37,64 H 45.1 L 78.6,70 c 2.2,-3.7 2.2,-8.3 0.1,-12 z"
           class="st0"
           inkscape:connector-curvature="0"
           style="fill:none" />
        <path
           id="XMLID_12_"
           d="M 71.2,82.9 70.9,82.4 59.7,101.8 0.8,0 H 0.3 l 59.4,102.8 z"
           inkscape:connector-curvature="0"
           style="opacity:0.2;fill:#1a237e" />
        <path
           id="XMLID_11_"
           d="M 78.7,58 45.1,0 H 0.3 l 37,64 -37,64 H 45.1 L 78.6,70 c 2.2,-3.7 2.2,-8.3 0.1,-12 z"
           class="st0"
           inkscape:connector-curvature="0"
           style="fill:none" />
        <path
           id="XMLID_10_"
           d="m 45.1,1 33.5,58 c 1,1.7 1.5,3.6 1.6,5.5 C 80.3,62.3 79.8,60 78.6,58 L 45.1,0 H 0.3 l 0.6,1 z"
           class="st5"
           inkscape:connector-curvature="0"
           style="opacity:0.2;fill:#ffffff;enable-background:new" />
        <path
           id="XMLID_9_"
           d="M 78.7,58 45.1,0 H 0.3 l 37,64 -37,64 H 45.1 L 78.6,70 c 2.2,-3.7 2.2,-8.3 0.1,-12 z"
           class="st0"
           inkscape:connector-curvature="0"
           style="fill:none" />
        <path
           id="XMLID_8_"
           d="M 71.2,82.9 78.7,70 c 1.2,-2 1.7,-4.3 1.6,-6.5 -0.1,1.9 -0.6,3.8 -1.6,5.5 L 71,82.4 Z"
           inkscape:connector-curvature="0"
           style="opacity:0.2;fill:#3e2723" />
        <path
           id="XMLID_6_"
           d="M 78.7,58 45.1,0 H 0.3 l 37,64 -37,64 H 45.1 L 78.6,70 c 2.2,-3.7 2.2,-8.3 0.1,-12 z"
           class="st0"
           inkscape:connector-curvature="0"
           style="fill:none" />
        <radialGradient
           id="XMLID_36_"
           cx="-0.74000001"
           cy="129"
           r="134.35001"
           gradientTransform="matrix(1,0,0,-1,0,130)"
           gradientUnits="userSpaceOnUse">
          <stop
             offset="0"
             stop-color="#fff"
             stop-opacity=".1"
             id="stop150" />
          <stop
             offset="1"
             stop-color="#fff"
             stop-opacity="0"
             id="stop152" />
        </radialGradient>
        <path
           id="XMLID_5_"
           d="M 78.7,58 45.1,0 H 0.3 l 37,64 -37,64 H 45.1 L 78.6,70 c 2.2,-3.7 2.2,-8.3 0.1,-12 z"
           style="fill:url(#XMLID_36_)"
           inkscape:connector-curvature="0" />
      </g>
    </g>
  </g>
  <text
     xml:space="preserve"
     style="font-style:normal;font-variant:normal;font-weight:normal;font-stretch:normal;font-size:14.66666698px;line-height:1.25;font-family:'Product Sans';-inkscape-font-specification:'Product Sans';letter-spacing:0px;word-spacing:0px;fill:#ffffff;fill-opacity:1;stroke:none;"
     x="101.91158"
     y="49.70208"
     id="text171"><tspan
       sodipodi:role="line"
       id="tspan169"
       x="101.91158"
       y="49.70208"
       style="font-size:64px;line-height:1;fill:#ffffff;">GDG DevFest</tspan><tspan
       sodipodi:role="line"
       x="101.91158"
       y="113.70208"
       id="tspan173"
       style="font-size:64px;line-height:1;fill:#ffffff;">Emilia Romagna</tspan></text>
</svg>
